img/Icons/heat.svg

<svg width="48" height="48" viewBox="0 0 48 48" fill="none" xmlns="http://www.w3.org/2000/svg">
<g clip-path="url(#clip0)">
<path d="M44.3969 5.44202H3.60385C1.61665 5.44202 0 7.05867 0 9.04539V27.1017C0 29.0885 1.61665 30.7056 3.60385 30.7056H13.5225C15.1589 33.26 15.1416 36.5183 13.4531 39.051L12.0297 41.1861C11.7714 41.5731 11.876 42.0954 12.2629 42.3537C12.407 42.4496 12.5689 42.4953 12.7294 42.4953C13.0016 42.4953 13.2686 42.3638 13.431 42.1204L14.8544 39.9853C16.7206 37.1871 16.9187 33.6618 15.4591 30.7056H24.47C26.1064 33.2604 26.089 36.5188 24.4006 39.051L22.9771 41.1861C22.7184 41.5731 22.8234 42.0954 23.2104 42.3542C23.3544 42.4496 23.5164 42.4953 23.6768 42.4953C23.9491 42.4953 24.216 42.3638 24.3784 42.1204L25.8018 39.9853C27.6676 37.1876 27.8661 33.6623 26.4061 30.7056H35.4169C37.0533 33.2604 37.0365 36.5188 35.348 39.0515L33.9241 41.1861C33.6658 41.5735 33.7704 42.0959 34.1578 42.3542C34.3019 42.45 34.4638 42.4958 34.6243 42.4958C34.896 42.4958 35.1635 42.3643 35.3254 42.1204L36.7493 39.9858C38.615 37.1876 38.8136 33.6623 37.3535 30.7061H44.3964C46.3832 30.7061 47.9998 29.089 47.9998 27.1022V9.04539C48.0008 7.05867 46.3836 5.44202 44.3969 5.44202ZM46.3162 27.1017C46.3162 28.1599 45.4556 29.021 44.3969 29.021H36.3946C35.7976 27.9122 35.4675 26.6845 35.4675 25.4147V22.2841H37.887C38.1712 22.2841 38.4363 22.1405 38.5914 21.9029C38.7471 21.6654 38.7726 21.3652 38.6584 21.105L35.5292 13.9474C35.3952 13.6404 35.0926 13.4424 34.7577 13.4424C34.4233 13.4424 34.1207 13.6404 33.9868 13.9469L30.8566 21.1045C30.7424 21.3652 30.7679 21.6654 30.9231 21.9029C31.0787 22.1405 31.3433 22.2841 31.6276 22.2841H33.7834V25.4147C33.7834 26.6642 34.0369 27.8848 34.5154 29.021H25.4472C24.8497 27.9122 24.5196 26.6845 24.5196 25.4147V22.2841H26.939C27.2238 22.2841 27.4883 22.1405 27.644 21.9029C27.7996 21.6654 27.8247 21.3652 27.7105 21.105L24.5818 13.9474C24.4478 13.6404 24.1452 13.4424 23.8103 13.4424C23.4759 13.4424 23.1733 13.6404 23.0388 13.9469L19.9091 21.1045C19.7949 21.3652 19.8205 21.6654 19.9756 21.9029C20.1308 22.1405 20.3958 22.2841 20.6801 22.2841H22.8355V25.4147C22.8355 26.6642 23.0894 27.8848 23.5679 29.021H14.4997C13.9022 27.9122 13.5721 26.6845 13.5721 25.4147V22.2841H15.9916C16.2764 22.2841 16.5409 22.1405 16.6965 21.9029C16.8522 21.6654 16.8772 21.3652 16.763 21.105L13.6343 13.9474C13.5004 13.6404 13.1977 13.4424 12.8628 13.4424C12.528 13.4424 12.2258 13.6404 12.0914 13.9469L8.96169 21.1045C8.84748 21.3652 8.87254 21.6654 9.02818 21.9029C9.18334 22.1405 9.44837 22.2841 9.73267 22.2841H11.888V25.4147C11.888 26.6642 12.142 27.8848 12.62 29.021H3.60385C2.5452 29.021 1.68411 28.1599 1.68411 27.1017V9.04539C1.68411 7.98722 2.5452 7.12613 3.60385 7.12613H44.3969C45.4556 7.12613 46.3162 7.98722 46.3162 9.04539V27.1017ZM32.9151 20.6L34.7577 16.3866L36.5999 20.6H32.9151ZM21.9676 20.6L23.8103 16.3866L25.6525 20.6H21.9676ZM11.0197 20.6L12.8628 16.3866L14.705 20.6H11.0197Z" fill="currentColor"/>
</g>
<defs>
<clipPath id="clip0">
<rect width="48" height="48" fill="white"/>
</clipPath>
</defs>
</svg>

<svg xmlns="http://www.w3.org/2000/svg" xmlns:xlink="http://www.w3.org/1999/xlink" viewBox="0 0 48 48"><defs><style>.cls-1{fill:none;}.cls-2{clip-path:url(#clip-path);}.cls-3{fill:#389583;}</style><clipPath id="clip-path"><rect class="cls-1" width="48" height="48"/></clipPath></defs><title>heat</title><g id="Layer_2" data-name="Layer 2"><g class="cls-2"><path class="cls-3" d="M44.4,5.44H3.6A3.61,3.61,0,0,0,0,9.05V27.1a3.61,3.61,0,0,0,3.6,3.61h9.92a7.59,7.59,0,0,1-.07,8.34L12,41.19a.85.85,0,0,0,.7,1.31.85.85,0,0,0,.7-.38L14.85,40a9.28,9.28,0,0,0,.61-9.28h9a7.59,7.59,0,0,1-.07,8.34L23,41.19a.85.85,0,0,0,.7,1.31.85.85,0,0,0,.7-.38L25.8,40a9.28,9.28,0,0,0,.61-9.28h9a7.61,7.61,0,0,1-.07,8.34l-1.43,2.14a.84.84,0,0,0,.24,1.16.79.79,0,0,0,.46.15.87.87,0,0,0,.71-.38L36.75,40a9.27,9.27,0,0,0,.6-9.28h7A3.61,3.61,0,0,0,48,27.1v-18a3.61,3.61,0,0,0-3.6-3.61ZM46.32,27.1A1.92,1.92,0,0,1,44.4,29h-8a7.68,7.68,0,0,1-.92-3.61V22.28h2.42a.83.83,0,0,0,.7-.38.84.84,0,0,0,.07-.8L35.53,14a.84.84,0,0,0-.77-.51A.83.83,0,0,0,34,14L30.86,21.1a.83.83,0,0,0,.77,1.18h2.15v3.13A9.29,9.29,0,0,0,34.52,29H25.45a7.58,7.58,0,0,1-.93-3.61V22.28h2.42a.83.83,0,0,0,.7-.38.84.84,0,0,0,.07-.8L24.58,14a.83.83,0,0,0-.77-.51A.84.84,0,0,0,23,14L19.91,21.1a.81.81,0,0,0,.07.8.83.83,0,0,0,.7.38h2.16v3.13A9.28,9.28,0,0,0,23.57,29H14.5a7.58,7.58,0,0,1-.93-3.61V22.28H16a.83.83,0,0,0,.77-1.18L13.63,14a.83.83,0,0,0-.77-.51.85.85,0,0,0-.77.51L9,21.1a.84.84,0,0,0,.07.8.83.83,0,0,0,.7.38h2.16v3.13A9.28,9.28,0,0,0,12.62,29h-9A1.93,1.93,0,0,1,1.68,27.1v-18A1.93,1.93,0,0,1,3.6,7.13H44.4a1.92,1.92,0,0,1,1.92,1.92Zm-13.4-6.5,1.84-4.21L36.6,20.6Zm-11,0,1.84-4.21,1.84,4.21ZM11,20.6l1.84-4.21L14.7,20.6Z"/></g></g></svg>
